Numix-GalliumOS/32/actions/gtk-print-warning.svg

<?xml version="1.0" encoding="UTF-8" standalone="no"?>
<svg
   xmlns:dc="http://purl.org/dc/elements/1.1/"
   xmlns:cc="http://creativecommons.org/ns#"
   xmlns:rdf="http://www.w3.org/1999/02/22-rdf-syntax-ns#"
   xmlns:svg="http://www.w3.org/2000/svg"
   xmlns="http://www.w3.org/2000/svg"
   xmlns:sodipodi="http://sodipodi.sourceforge.net/DTD/sodipodi-0.dtd"
   xmlns:inkscape="http://www.inkscape.org/namespaces/inkscape"
   width="32"
   height="32"
   viewBox="0 0 32 32"
   id="svg2"
   version="1.1"
   inkscape:version="0.91 r"
   sodipodi:docname="gtk-print-warning.svg">
  <metadata
     id="metadata16">
    <rdf:RDF>
      <cc:Work
         rdf:about="">
        <dc:format>image/svg+xml</dc:format>
        <dc:type
           rdf:resource="http://purl.org/dc/dcmitype/StillImage" />
        <dc:title></dc:title>
      </cc:Work>
    </rdf:RDF>
  </metadata>
  <defs
     id="defs14" />
  <sodipodi:namedview
     pagecolor="#ffffff"
     bordercolor="#666666"
     borderopacity="1"
     objecttolerance="10"
     gridtolerance="10"
     guidetolerance="10"
     inkscape:pageopacity="0"
     inkscape:pageshadow="2"
     inkscape:window-width="1366"
     inkscape:window-height="747"
     id="namedview12"
     showgrid="true"
     inkscape:zoom="3.6875"
     inkscape:cx="69.77254"
     inkscape:cy="11.392998"
     inkscape:window-x="0"
     inkscape:window-y="21"
     inkscape:window-maximized="1"
     inkscape:current-layer="svg2">
    <inkscape:grid
       type="xygrid"
       id="grid4169" />
  </sodipodi:namedview>
  <g
     style="fill-rule:evenodd"
     id="g4">
    <path
       style="fill:#aaa;fill-opacity:.941"
       d="M 9.332031 0.0078125 L 22.667969 0.0078125 C 26 0.0078125 26 -0.324219 26 3.339844 L 26 16.667969 C 26 20 26 20 22.667969 20 L 9.332031 20 C 6 20 6 20 6 16.667969 L 6 3.339844 C 6 0.0078125 6 0.0078125 9.332031 0.0078125 Z "
       id="path6" />
    <path
       style="fill:#ccc"
       d="M 3.199219 8 L 28.800781 8 C 32 8 32 8 32 11.199219 L 32 20.800781 C 32 24 32 24 28.800781 24 L 3.199219 24 C 0 24 0 24 0 20.800781 L 0 11.199219 C 0 8 0 8 3.199219 8 Z "
       id="path8" />
  </g>
  <path
     style="fill:#dc322f"
     d="M 6 16 L 26 16 L 26 32 L 6 32 Z "
     id="path10" />
  <path
     inkscape:connector-curvature="0"
     style="fill:#ffe546;fill-rule:evenodd;fill-opacity:1"
     d="m 32,7.0000001 a 7,7 0 0 1 -14,0 7,7 0 1 1 14,0 z"
     id="path4191" />
  <g
     id="g4331"
     transform="matrix(-1,0,0,-1,50,14.500005)">
    <g
       id="g4193"
       transform="matrix(0.5,0,0,1,19,-6)"
       style="line-height:125%;letter-spacing:0;word-spacing:0">
      <path
         id="path4195"
         d="m 14,18 -4,0 0,-6 4,0 0,6"
         style="fill:#ffffff;fill-opacity:0.9"
         inkscape:connector-curvature="0" />
    </g>
    <g
       id="g4197"
       transform="matrix(0.49999884,0,0,0.49999884,18.999996,2.4968895e-5)"
       style="fill-rule:evenodd">
      <path
         id="path4199"
         transform="matrix(1.24868,0,0,1.15686,-2.44444,-0.82353)"
         d="m 13.169492,7.6271181 c 0,0.9547974 -0.717104,1.7288137 -1.601695,1.7288137 -0.884592,0 -1.6016952,-0.7740163 -1.6016952,-1.7288137 0,-0.9547974 0.7171032,-1.7288136 1.6016952,-1.7288136 0.884591,0 1.601695,0.7740162 1.601695,1.7288136 z"
         style="fill:#ffffff;fill-opacity:0.9"
         inkscape:connector-curvature="0" />
    </g>
  </g>
</svg>

<svg xmlns="http://www.w3.org/2000/svg" viewBox="0 0 32 32">
 <g style="fill-rule:evenodd">
  <path d="m 9.332 0.008 l 13.336 0 c 3.332 0 3.332 -0.332 3.332 3.332 l 0 13.328 c 0 3.332 0 3.332 -3.332 3.332 l -13.336 0 c -3.332 0 -3.332 0 -3.332 -3.332 l 0 -13.328 c 0 -3.332 0 -3.332 3.332 -3.332 Z" style="fill:#aaa;fill-opacity:0.941"/>
  <path d="M 3.199219 8 L 28.800781 8 C 32 8 32 8 32 11.199219 L 32 20.800781 C 32 24 32 24 28.800781 24 L 3.199219 24 C 0 24 0 24 0 20.800781 L 0 11.199219 C 0 8 0 8 3.199219 8 Z " style="fill:#ccc"/>
 </g>
 <path d="m 6 16 l 20 0 l 0 16 l -20 0 Z" style="fill:#dc322f"/>
 <path d="m 32 7 a 7 7 0 0 1 -14 0 7 7 0 1 1 14 0 z" style="fill:#ffe546;fill-opacity:1;fill-rule:evenodd"/>
 <g transform="matrix(-1,0,0,-1,50,14.500005)">
  <g transform="matrix(0.5,0,0,1,19,-6)">
   <path d="m 14 18 -4 0 0 -6 4 0 0 6" style="fill:#fff;fill-opacity:0.9"/>
  </g>
  <g transform="matrix(0.49999884,0,0,0.49999884,18.999996,2.4968895e-5)" style="fill-rule:evenodd">
   <path transform="matrix(1.24868,0,0,1.15686,-2.44444,-0.82353)" d="m 13.169 7.627 c 0 0.955 -0.717 1.729 -1.602 1.729 -0.885 0 -1.602 -0.774 -1.602 -1.729 0 -0.955 0.717 -1.729 1.602 -1.729 0.885 0 1.602 0.774 1.602 1.729 z" style="fill:#fff;fill-opacity:0.9"/>
  </g>
 </g>
</svg>
